public/client2.svg

<svg width="106" height="60" viewBox="0 0 106 60" fill="none" xmlns="http://www.w3.org/2000/svg">
<path d="M49.9769 6.93452H50.1135C50.3665 6.93452 50.6397 6.95995 50.9104 6.98284C52.103 7.06695 53.2873 7.24551 54.452 7.51685V4.65353C53.2527 4.35263 52.0296 4.15778 50.7965 4.0712C50.3285 4.0356 49.8302 4.01271 49.3192 4H48.8917C46.4168 4.00931 43.9526 4.32705 41.5554 4.94596C38.8252 5.62687 36.2046 6.69275 33.7715 8.11189V36.5086C36.1142 35.2357 38.607 34.2643 41.1912 33.6173C43.2315 33.0967 45.3174 32.7765 47.4193 32.6612H47.5028C47.8545 32.6434 48.2061 32.6332 48.5678 32.6306V29.7216C45.8366 29.7567 43.1192 30.1178 40.4727 30.7972C39.4937 31.0515 38.5476 31.3261 37.6597 31.6313L36.6478 31.9746V9.83344L37.0804 9.62492C40.3816 8.05951 43.9521 7.14863 47.5964 6.94215C47.6267 6.93994 47.6572 6.93994 47.6875 6.94215C48.0897 6.92181 48.4945 6.91163 48.8917 6.91163H49.3268H49.347C49.557 6.91672 49.7669 6.92181 49.9769 6.93452Z" fill="#AFB1B8"/>
<path d="M57.111 9.93259C56.4457 9.93259 55.788 9.9097 55.153 9.86138C54.3941 9.80544 53.6149 9.7139 52.8763 9.58929C52.426 9.51301 51.9833 9.42146 51.5532 9.32229V37.3935C53.3739 37.8443 55.2435 38.0647 57.1186 38.0496C59.5933 38.0395 62.0573 37.7227 64.4548 37.1061C67.1856 36.4243 69.8069 35.3585 72.2413 33.9402V6.04956C69.8989 7.32178 67.4071 8.29396 64.8242 8.94339C62.3034 9.59083 59.7128 9.92307 57.111 9.93259ZM68.3354 10.4183L69.3473 10.0775V32.2263L68.9147 32.4348C67.2554 33.2243 65.5226 33.8469 63.7414 34.2937C61.5784 34.8533 59.3547 35.1412 57.1211 35.1506C56.4533 35.1506 55.7905 35.1227 55.148 35.0667L54.4548 35.0057V32.3178V12.2288L55.2618 12.2822C55.8487 12.3204 56.4558 12.3382 57.1161 12.3382C59.9517 12.3281 62.7751 11.966 65.5224 11.26C66.4659 11.0108 67.4045 10.7311 68.3354 10.4183Z" fill="#AFB1B8"/>
<path d="M35.7373 46.2124C35.5918 46.0615 35.4164 45.943 35.2225 45.8646C35.0286 45.7862 34.8204 45.7496 34.6115 45.7572C34.3889 45.7542 34.1679 45.7957 33.9614 45.8793C33.772 45.9547 33.5999 46.068 33.4554 46.2124C33.3126 46.3572 33.2014 46.5304 33.1291 46.721C33.0498 46.9207 33.0103 47.1341 33.0127 47.3491V51.1431C33.0037 51.4104 33.0547 51.6764 33.162 51.9212C33.2516 52.1156 33.3808 52.2889 33.5415 52.4298C33.6931 52.5575 33.8711 52.6495 34.0626 52.6994C34.2471 52.7512 34.4377 52.7777 34.6292 52.7782C34.8405 52.7803 35.0497 52.7351 35.2414 52.646C35.4311 52.563 35.6029 52.4438 35.7474 52.295C35.8883 52.1476 36.0006 51.9752 36.0788 51.7864C36.1599 51.5951 36.2012 51.3892 36.2002 51.1812V50.7566H35.2085V51.0948C35.2115 51.2103 35.1917 51.3252 35.1504 51.433C35.1181 51.5137 35.0689 51.5866 35.0062 51.6466C34.9447 51.6962 34.8743 51.7334 34.7987 51.7559C34.7318 51.7782 34.6618 51.7902 34.5913 51.7915C34.5028 51.8018 34.4131 51.7885 34.3313 51.7527C34.2496 51.717 34.1787 51.6602 34.1258 51.5881C34.0323 51.4356 33.9865 51.2585 33.9943 51.0795V47.5423C33.9881 47.3462 34.0298 47.1515 34.1157 46.9753C34.1672 46.8952 34.24 46.8313 34.3259 46.7908C34.4118 46.7503 34.5072 46.7349 34.6014 46.7464C34.6869 46.7434 34.7718 46.7612 34.8489 46.7984C34.926 46.8356 34.993 46.8911 35.0441 46.96C35.1551 47.1057 35.2131 47.2852 35.2085 47.4686V47.7966H36.1901V47.4101C36.1921 47.1831 36.1509 46.9578 36.0686 46.7464C35.9954 46.5476 35.8826 46.3659 35.7373 46.2124Z" fill="#AFB1B8"/>
<path d="M41.6287 46.1691C41.3125 45.9021 40.9134 45.7546 40.5004 45.7521C40.2984 45.7529 40.0981 45.7891 39.9085 45.8589C39.7159 45.9279 39.5382 46.0332 39.3848 46.1691C39.2205 46.3168 39.0894 46.498 39.0003 46.7006C38.9004 46.9323 38.8512 47.183 38.8561 47.4355V51.0744C38.8493 51.3304 38.8985 51.5847 39.0003 51.8195C39.09 52.0151 39.2213 52.1887 39.3848 52.328C39.5364 52.4688 39.7144 52.5777 39.9085 52.6485C40.0981 52.7183 40.2984 52.7544 40.5004 52.7553C40.7024 52.7549 40.9028 52.7187 41.0924 52.6485C41.2897 52.5767 41.4717 52.468 41.6287 52.328C41.7869 52.1861 41.9143 52.013 42.0031 51.8195C42.1049 51.5847 42.1541 51.3304 42.1473 51.0744V47.4355C42.1521 47.183 42.103 46.9323 42.0031 46.7006C41.9148 46.5001 41.7875 46.3194 41.6287 46.1691ZM41.1657 51.0744C41.1741 51.1714 41.1607 51.269 41.1266 51.3601C41.0924 51.4512 41.0384 51.5334 40.9684 51.6008C40.8374 51.7106 40.6723 51.7708 40.5017 51.7708C40.3311 51.7708 40.1659 51.7106 40.0349 51.6008C39.965 51.5334 39.911 51.4512 39.8768 51.3601C39.8427 51.269 39.8293 51.1714 39.8376 51.0744V47.4355C39.8293 47.3385 39.8427 47.2409 39.8768 47.1498C39.911 47.0587 39.965 46.9764 40.0349 46.9091C40.1659 46.7993 40.3311 46.7391 40.5017 46.7391C40.6723 46.7391 40.8374 46.7993 40.9684 46.9091C41.0384 46.9764 41.0924 47.0587 41.1266 47.1498C41.1607 47.2409 41.1741 47.3385 41.1657 47.4355V51.0744Z" fill="#AFB1B8"/>
<path d="M49.3675 52.6994V45.8107H48.4138L47.1616 49.4572H47.1439L45.8816 45.8107H44.938V52.6994H45.9221V48.5087H45.9398L46.9036 51.4712H47.3944L48.3658 48.5087H48.3835V52.6994H49.3675Z" fill="#AFB1B8"/>
<path d="M54.9582 46.2937C54.8067 46.1237 54.6154 45.9943 54.4016 45.9173C54.1713 45.8424 53.9303 45.8063 53.6883 45.8105H52.2261V52.6993H53.2076V50.0089H53.7136C54.0198 50.0228 54.3245 49.958 54.599 49.8207C54.8221 49.6968 55.0082 49.515 55.1378 49.2943C55.2513 49.1111 55.3278 48.9071 55.3629 48.6942C55.4016 48.435 55.4193 48.173 55.4161 47.911C55.4256 47.5802 55.3933 47.2495 55.3199 46.9269C55.2545 46.6885 55.13 46.4706 54.9582 46.2937ZM54.4522 48.3941C54.448 48.5188 54.4169 48.6412 54.3612 48.7527C54.3051 48.8586 54.2163 48.9434 54.1082 48.9942C53.9628 49.0593 53.8042 49.0889 53.6453 49.0807H53.1975V46.7387H53.7034C53.8558 46.7312 54.0077 46.7609 54.1461 46.8251C54.2476 46.8834 54.3282 46.9724 54.3763 47.0794C54.43 47.2004 54.4592 47.331 54.4624 47.4634C54.4624 47.6084 54.4624 47.7609 54.4624 47.9211C54.4624 48.0813 54.4725 48.2466 54.4624 48.3941H54.4522Z" fill="#AFB1B8"/>
<path d="M59.6074 45.8107H58.803L57.2852 52.6994H58.2667L58.5551 51.2194H59.8933L60.1817 52.6994H61.1632L59.6074 45.8107ZM58.7018 50.2811L59.185 47.784H59.2027L59.6833 50.2811H58.7018Z" fill="#AFB1B8"/>
<path d="M65.9496 49.9607H65.9319L64.4494 45.8107H63.5059V52.6994H64.4874V48.557H64.5076L66.0078 52.6994H66.9311V45.8107H65.9496V49.9607Z" fill="#AFB1B8"/>
<path d="M71.9476 45.8107L71.1583 48.5494H71.1381L70.3488 45.8107H69.3091L70.6574 49.7878V52.6994H71.639V49.7878L72.9873 45.8107H71.9476Z" fill="#AFB1B8"/>
<path d="M33 54.6445H33.4731V55.9719H33.7943V54.6445H34.2649V54.3724H33V54.6445Z" fill="#AFB1B8"/>
<path d="M36.9767 54.3724L36.3569 55.9719H36.6984L36.83 55.6083H37.4675L37.6041 55.9719H37.9532L37.3182 54.3724H36.9767ZM36.9261 55.3387L37.1437 54.7462L37.3612 55.3387H36.9261Z" fill="#AFB1B8"/>
<path d="M40.9079 55.3821H41.2773V55.5881C41.1694 55.6746 41.0358 55.722 40.8978 55.7229C40.8333 55.7265 40.7689 55.7145 40.7099 55.688C40.6509 55.6614 40.5991 55.6211 40.5588 55.5703C40.474 55.4485 40.4322 55.3017 40.4399 55.1533C40.4399 54.7973 40.5942 54.6193 40.9003 54.6193C40.9809 54.6112 41.0617 54.6325 41.128 54.6791C41.1944 54.7257 41.2419 54.7947 41.2621 54.8735L41.5783 54.8125C41.51 54.4997 41.2849 54.3421 40.9003 54.3421C40.6947 54.3366 40.4947 54.4103 40.3413 54.5481C40.2607 54.6276 40.1983 54.7239 40.1586 54.8302C40.1188 54.9365 40.1026 55.0502 40.1111 55.1634C40.1017 55.3823 40.1749 55.5966 40.316 55.7636C40.3943 55.8444 40.4892 55.9071 40.594 55.9475C40.6988 55.9879 40.8111 56.0049 40.9231 55.9975C41.1734 56.0045 41.4165 55.9133 41.6011 55.7432V55.1126H40.9079V55.3821Z" fill="#AFB1B8"/>
<path d="M44.9224 54.3724H44.5986V55.9719H45.7193V55.6998H44.9224V54.3724Z" fill="#AFB1B8"/>
<path d="M48.3175 54.3724H47.9937V55.9719H48.3175V54.3724Z" fill="#AFB1B8"/>
<path d="M51.6364 55.4405L50.9812 54.3724H50.6675V55.9719H50.9685V54.9268L51.6111 55.9719H51.9323V54.3724H51.6364V55.4405Z" fill="#AFB1B8"/>
<path d="M54.6368 55.2675H55.4337V54.9954H54.6368V54.6445H55.4944V54.3724H54.313V55.9719H55.5273V55.6998H54.6368V55.2675Z" fill="#AFB1B8"/>
<path d="M61.9121 55.0031H61.2822V54.3724H60.9609V55.9719H61.2822V55.2726H61.9121V55.9719H62.2334V54.3724H61.9121V55.0031Z" fill="#AFB1B8"/>
<path d="M64.9302 55.2675H65.7296V54.9954H64.9302V54.6445H65.7903V54.3724H64.6089V55.9719H65.8206V55.6998H64.9302V55.2675Z" fill="#AFB1B8"/>
<path d="M69.0235 55.2676C69.3018 55.2244 69.4434 55.0769 69.4434 54.8226C69.4515 54.7546 69.4412 54.6856 69.4136 54.623C69.386 54.5603 69.3421 54.5063 69.2866 54.4666C69.1417 54.3938 68.9801 54.3614 68.8186 54.3725H68.1406V55.972H68.4619V55.3032H68.5251C68.5936 55.299 68.6621 55.3112 68.725 55.3388C68.772 55.3678 68.8111 55.4079 68.8388 55.4558L69.1879 55.9644H69.5724L69.3777 55.6516C69.2916 55.4972 69.1702 55.3656 69.0235 55.2676ZM68.6997 55.0464H68.4619V54.6446H68.7149C68.8251 54.6357 68.936 54.6486 69.0412 54.6827C69.0646 54.7034 69.0831 54.7291 69.0952 54.7579C69.1074 54.7867 69.113 54.8179 69.1115 54.8492C69.11 54.8804 69.1016 54.911 69.0868 54.9385C69.072 54.966 69.0512 54.9899 69.026 55.0082C68.9204 55.0406 68.8099 55.0535 68.6997 55.0464Z" fill="#AFB1B8"/>
<path d="M72.1094 55.2675H72.9063V54.9954H72.1094V54.6445H72.9696V54.3724H71.7856V55.9719H72.9999V55.6998H72.1094V55.2675Z" fill="#AFB1B8"/>
</svg>

<svg xmlns="http://www.w3.org/2000/svg" width="106" height="60" fill="none"><path fill="#AFB1B8" d="M49.977 6.935h.137c.253 0 .526.025.796.048 1.193.084 2.377.263 3.542.534V4.654c-1.2-.301-2.422-.496-3.655-.583A29.236 29.236 0 0 0 49.319 4h-.427c-2.475.01-4.94.327-7.337.946-2.73.68-5.35 1.747-7.783 3.166v28.397a31.633 31.633 0 0 1 7.42-2.892 32.36 32.36 0 0 1 6.227-.956h.084c.352-.018.703-.028 1.065-.03v-2.91a34.329 34.329 0 0 0-8.095 1.076c-.98.255-1.925.53-2.813.834l-1.012.344V9.833l.432-.208a28.275 28.275 0 0 1 10.516-2.683.627.627 0 0 1 .092 0c.402-.02.806-.03 1.204-.03h.455c.21.005.42.01.63.023Z"/><path fill="#AFB1B8" d="M57.111 9.933a25.915 25.915 0 0 1-4.235-.344c-.45-.076-.893-.168-1.323-.267v28.072c1.82.45 3.69.67 5.566.656a29.943 29.943 0 0 0 7.336-.944 29.814 29.814 0 0 0 7.786-3.166V6.05a31.774 31.774 0 0 1-7.417 2.893c-2.52.648-5.111.98-7.713.99Zm11.224.485 1.012-.34v22.148l-.432.209a27.761 27.761 0 0 1-5.174 1.859c-2.163.56-4.386.847-6.62.857-.668 0-1.33-.028-1.973-.084l-.693-.061V12.228l.807.054a28.38 28.38 0 0 0 1.854.056 34.263 34.263 0 0 0 8.406-1.078c.944-.25 1.882-.529 2.813-.842ZM35.737 46.212a1.492 1.492 0 0 0-1.126-.455 1.672 1.672 0 0 0-.65.122 1.464 1.464 0 0 0-.832.842c-.08.2-.119.413-.116.628v3.794c-.01.267.042.533.149.778.09.195.219.368.38.509.151.127.33.22.52.27.185.051.376.078.567.078.212.002.42-.043.612-.132a1.599 1.599 0 0 0 .96-1.465v-.424h-.992v.338a.881.881 0 0 1-.059.338.609.609 0 0 1-.144.214.697.697 0 0 1-.415.145.503.503 0 0 1-.465-.204.898.898 0 0 1-.132-.508v-3.538c-.006-.196.036-.39.122-.567a.507.507 0 0 1 .485-.229.527.527 0 0 1 .443.214.806.806 0 0 1 .165.509v.328h.981v-.387a1.786 1.786 0 0 0-.121-.664 1.562 1.562 0 0 0-.332-.534ZM41.629 46.17a1.765 1.765 0 0 0-1.129-.418c-.202 0-.402.037-.592.107A1.558 1.558 0 0 0 39 46.7c-.1.231-.149.482-.144.735v3.638c-.007.256.042.51.144.745.09.196.221.37.385.509.151.14.33.25.523.32.19.07.39.106.592.107a1.715 1.715 0 0 0 1.129-.427c.158-.142.285-.315.374-.509.102-.234.151-.489.144-.745v-3.639a1.771 1.771 0 0 0-.144-.734 1.644 1.644 0 0 0-.374-.532Zm-.463 4.904a.654.654 0 0 1-.198.527.726.726 0 0 1-.933 0 .653.653 0 0 1-.197-.527v-3.639a.656.656 0 0 1 .197-.526.727.727 0 0 1 .933 0 .651.651 0 0 1 .198.526v3.64ZM49.367 52.7v-6.89h-.953l-1.252 3.647h-.018l-1.262-3.646h-.944v6.888h.984v-4.19h.018l.964 2.962h.49l.972-2.962h.017v4.19h.984ZM54.958 46.294c-.151-.17-.343-.3-.556-.377a2.184 2.184 0 0 0-.714-.107h-1.462v6.89h.982v-2.691h.506c.306.014.61-.051.885-.188a1.43 1.43 0 0 0 .539-.527c.113-.183.19-.387.225-.6a4.9 4.9 0 0 0 .053-.783c.01-.33-.023-.662-.096-.984a1.465 1.465 0 0 0-.362-.633Zm-.506 2.1a.868.868 0 0 1-.09.359.552.552 0 0 1-.254.241 1.006 1.006 0 0 1-.463.087h-.448v-2.342h.506a.942.942 0 0 1 .443.086.556.556 0 0 1 .23.254c.054.121.083.252.086.384v.458c0 .16.01.326 0 .473h-.01ZM59.607 45.81h-.804l-1.518 6.89h.982l.288-1.48h1.338l.289 1.48h.981l-1.556-6.89Zm-.905 4.471.483-2.497h.018l.48 2.497h-.981ZM65.95 49.96h-.018l-1.483-4.15h-.943v6.89h.981v-4.143h.02l1.5 4.142h.924v-6.888h-.981v4.15ZM71.948 45.81l-.79 2.74h-.02l-.79-2.74H69.31l1.348 3.978v2.911h.982v-2.911l1.348-3.977h-1.04ZM33 54.645h.473v1.327h.321v-1.328h.47v-.272H33v.273ZM36.977 54.372l-.62 1.6h.341l.132-.364h.638l.136.364h.35l-.636-1.6h-.341Zm-.05.967.217-.593.217.593h-.435ZM40.908 55.382h.37v.206a.613.613 0 0 1-.38.135.404.404 0 0 1-.34-.153.67.67 0 0 1-.118-.417c0-.356.154-.534.46-.534a.337.337 0 0 1 .362.255l.316-.062c-.068-.312-.293-.47-.678-.47a.804.804 0 0 0-.559.206.78.78 0 0 0-.23.615.872.872 0 0 0 .205.6.776.776 0 0 0 .607.235.96.96 0 0 0 .678-.255v-.63h-.693v.27ZM44.922 54.372H44.6v1.6h1.12V55.7h-.797v-1.328ZM48.318 54.372h-.324v1.6h.324v-1.6ZM51.636 55.44l-.655-1.068h-.314v1.6h.301v-1.045l.643 1.045h.321v-1.6h-.296v1.069ZM54.637 55.267h.797v-.272h-.797v-.35h.857v-.273h-1.181v1.6h1.214V55.7h-.89v-.433ZM61.912 55.003h-.63v-.63h-.321v1.599h.321v-.7h.63v.7h.321v-1.6h-.32v.631ZM64.93 55.267h.8v-.272h-.8v-.35h.86v-.273H64.61v1.6h1.212V55.7h-.89v-.433ZM69.023 55.268c.279-.044.42-.191.42-.445a.383.383 0 0 0-.156-.356.904.904 0 0 0-.468-.094h-.678v1.599h.32v-.669h.064a.432.432 0 0 1 .2.036c.047.029.086.069.114.117l.349.508h.384l-.194-.312a1.114 1.114 0 0 0-.355-.384Zm-.323-.222h-.238v-.401h.253a.84.84 0 0 1 .326.038.208.208 0 0 1 .046.255.208.208 0 0 1-.061.07.912.912 0 0 1-.326.038ZM72.11 55.267h.796v-.272h-.797v-.35h.86v-.273h-1.183v1.6H73V55.7h-.89v-.433Z"/></svg>
